X: 10201
T: French Air
O: in No Song no Supper.
Q:
B: "Man of Feeling", Gaetano Brandi, ed. v.1 p.20
F: http://archive.org/details/manoffeelingorge00rugg
Z: 2012 John Chambers <jc:trillian.mit.edu>
M: 2/4
L: 1/16
K: A
%%graceslurs 0
(cd) |\
e2e2e2f2 | {g/}f2e2 z2cd | e2e2e2f2 | {g/}f2e2 z2e2 |\
aege aebe | c'ebe aAgA | fAeA d2c2 | c2B2 z2cd |
e2e2e2f2 | {g/}f2e2 z2cd | e2e2e2f2 | {g/}f2e2 z2e2 |\
aege aebe | d'2c'2b2a2 | c'2b2a2g2 | a2z2 z2e2 |
d2d2d2d2 | {e/}d2c2 z2a2 | B2B2B2B2 | {c/}B2A2 z2e2 |\
d2d2d2d2 | {e/}d2c2 z2e2 | f2f2 d'bag | a2z2 z2a2 |
c'2b2a2g2 | f2e2d2c2 | d2d2B2B2 | c2z2 z2e2 |\
c'2b2a2g2 | f2e2d2c2 | d2d2B2B2 | A4 A2 |]
%
%%center -

%%sep 2 1 500
%%sep 1 1 500

